X: 13530
T: Flowers Of Strabane
R: reel
M: 4/4
K: Edorian
B2BB BABc|dedE D2DE|FAAF FEED|E4- E2DD|
E2EF A2AA|Beec d2df|e2ed BABc|d4- d2DD|
E2EF A2AA|Beec d2df|e2ed BABc|d4- d2Bd|
efec d2dB|ABAF D2DE|FAAF FEED|E4- E2FA||

